public/avatar/item1/47.svg

<svg xmlns:xlink="http://www.w3.org/1999/xlink" height="65.4" width="80.15" xmlns="http://www.w3.org/2000/svg"><use height="34.55" transform="translate(12.75 27.55)" width="36.45" xlink:href="#a"/><defs><g id="a" fill-rule="evenodd"><path d="M16.65 22.1q-.6 2.1-1.75 1.7-.4 3.65-1.3 4.45l-.95.1q-.7.1-1.1 1l-.75 2.9q-.45 1.75-.95 1.65-.4 3.9-1.85 3.6-.2 1.1-1 1.85-.8.8-1.2-.25-1.75 5.3-6.7 9-1.55.95-.35-2.9.65-.9 1.1-2.2.35-.95-.8-3.5-1.1-2.55-1.9-2.65-.6-.05-1.25-1.15l-.5-1.05-1.4-.2q-.7-.35-1.3-1.85l-.45-1.4q-.55.95-1.75.4l-1.95-1.85q-1.5-1.85-2.05-2.35-1.7-2.25-2.7-2.5-.65-.2-1.65-1.6l-.95-1.75-.05-.6q.2-2.55 1.8-5.15l1.5-2.05.85 2.2q1.05 2.25 2 2.2l2.7-.7q6.7-2 9.75-1.95 3.65.1 9 1.9 3 .8 6.1-3.3l1.45 2.5q1.45 2.7 1.3 3.95-.25 1.1-.95 1.55m-16.5-1q.9 0 2 1.1l1.2-.7 1.35-.05 1.4-.1.9-1.2q-.8.95-2.3-.45-.6 1.3-2.45-.3-.2.4-1.05.5-.9.1-1.35-.4-.5 1.4-2.15.2l-2.65.1q-.5.55-1.8.65.65.75 3.15.9.85.1 1.9.85.3 0 .8-.55.55-.55 1.05-.55" fill="#0d090e" transform="translate(18.85 -13.75)"/><path d="m14.15 22.8-.1.9q-.25 2.6-.95 3.8H13q-1.6 0-2.25 1.5l-.65 2.3-.4 1.7-.55-.15-.1.95Q8.7 36.25 8 36.7l-.7.05-.1.6q-.25.85-.7 1.3l-.85-1.8L5 38.8q-.85 2.6-3.25 5.6-2.15 2.8-2.5 2.45l.6-2 .8-1.55.2-1.35q0-1.65-1.5-4.2-1-1.7-2.1-1.75-.55-.1-1.05-1.65l-.55-.85-.6.4-.65-.2q-.7-.4-1.35-2.7l-.45-1.75-1.05 1.5-.7.05-1.95-1.95-1.85-2.1-1.2-1.25q-1-1.2-1.85-1.4l-1.1-1.2-.85-1.5-.15-.95q-.05-1 1.25-3.35l1.25-2.2q1.3 4.8 3.75 3.9l3.8-1.4q4.45-1.45 7.8-1.45 5.4 0 9.35 2.15l1.65-.1q1.55-.25 4.15-2.75l1.9 4.8q-.05 1.05-.6 1.35l-.3.15-.05.35q-.25.85-.85 1.05l-.85-.15m-14-.85.6.4q.8.8 1.55.7l1.15-.55.65-.4q.65.6 1.65.35l1.5-1.25.85-1.75-1.85.15-1.6-.85-.95.55-1.55-1.1q-.25.95-1 1l-1.55-.75q0 .7-.65.85l-1.4-.75q-.25.75-1.15.9l-1.1-.3-.45-.45-.5.55q-.45.65-1 .7l-1.3.05.8.85Q-5.9 22.3-4.2 22.2h.55l.6.35 1.35.5q.6 0 1.35-.75l.5-.35" fill="#fff" transform="translate(18.85 -13.75)"/><path d="M7.8 23.35q.65-.8 1.9-.15.6.3 1.1.75l-1.15-2.6.9-1.6 2.85-.15q-1.65-.85-1.3-1.25l2.2-.05.55-1.5q.6.2 1.05 2.8-.05.8-.6 1.1l-.5 1.1q-.5.45-1.7.7l-.6 3.8-1.5.1-.75 2-.75-.25-.15 3.8-.6-.55q-.6 4.1-.9 4.3-.2 0-1.3-2.5-.25 3.6-.5 3.85l-1.55-2.1-.2 1.95q-.35 2.3-1.25 4.05Q.3 46.45-.4 46.8l1.75-3.2q1.1-1.95 2.05-6.15V30.8l1.9 2.95q.3-5.6.5-6.8 1.3 2.1 2.4 1.7.4-.15-.4-5.3" fill="#c0bbbd" transform="translate(18.85 -13.75)"/><path d="m-1.65 32.95.1 1.85-.7-3.55q-1.15 3.1-1.25 2.1-.15-1 2.15-6.4-.55 1.6-.3 6m3.9-15.2q.9.85 2.65.25l1.75 1.05 1.6.15 1.6 1.3-.2-1.3 2.95.05L8.5 18l5.15-.2 1.15-1.9 1 2.9q-.45-.4-1.9-.25l-1.3.2 2.6 1.55-2.75-.35-1.85.25 2.25 1.85-2.55-.3q.45.45 1.45 3.7l-1.9-2q.45.75.2 4.1-.8-2.45-2.25-4.05 1.4 3.35 1.25 7.95l-.7-3-.6 6.85q-.4-3.15-2-5.6.65 2.6-.15 6.75-.3-1.5-1.85-3.7.55 4.75-1.2 8.05 0-1.95-.8-5.9-.8-4-1.2-3.8-.8 4.6-1.55 5.15l-.4-.8q-.05-1.65 1-5.05 1.05-3.5 1.45-2.45l1.15 5q.75 4.15.55 5.85.8-1.9.2-7.35-.5-4.5-.35-4.35 2.4 7.6 2.3 4.85 0-1.3-1.1-5.5-.85-3.35-.4-3.25.4.05 2.25 3 1.6 2.5 1.6 1.55l-1.5-5.3q.95-.6 1.75-1.8l.6-1.05q-1.85.3-2.8-.35l-.55-.7q-.2.55-.9.75-.7.2-1.45-.85l-1.25.75q-.6.3-1.4-.95 1.4.55 2.5-.5m-3.8 17.05.15.65v.05q.15 5.65-.15-.7m-5.3-3.35-.55-2.1-1.25 1.6q1.2-5.15 3.3-7.1-1.2 2.85-1.5 7.6m-3.85-9.25-.9.8.85-1.65q.45-.8 1.75-1.2l1.15-.25q.4 1.55 2.9 2.35-1.5.25-3.75 2.8 1.75-2.7 1.3-2.75-.45-.05-1.35.8l-1.2 1.5q.85-2.1.5-2.65-.3-.45-1.25.25" fill="#dedee3" transform="translate(18.85 -13.75)"/><path d="m5.75 22.45.8 1.8q.75 2.2.55 4.05-.65-2.5-2.75-6l1.4.15m-4 .6.9-.1L3.3 24q.6 1.25.65 2.45l-2.2-3.4" fill="#c0bbbd" transform="translate(18.85 -13.75)"/><path d="m.5 22.05 1.25 1v3.1L.5 22.05" fill="#c0bbbd" transform="translate(18.85 -13.75)"/><path d="M-.65 22.55-2.35 27l-.5-4.3q1.4.8 2.2-.15" fill="#dedee3" transform="translate(18.85 -13.75)"/><path d="m-1 22.8-1.2 2.45-.2-2.3 1.4-.15m-7.65-1.85-1.3.15 2.1-1.1 1.5 1.65-2.7.95q1-1.45.4-1.65m16.5-.45 1.7 1.5.6.9-1.35-.55q.8 2.9.3 1.7-.4-1.1-2.5-2.15l1.25-1.4" fill="#c0bbbd" transform="translate(18.85 -13.75)"/></g></defs></svg>

<?xml version="1.0" encoding="UTF-8" standalone="no"?>
<svg xmlns:xlink="http://www.w3.org/1999/xlink" height="65.4px" width="80.15px" xmlns="http://www.w3.org/2000/svg">
  <g transform="matrix(1.0, 0.0, 0.0, 1.0, 31.6, 13.8)">
    <use height="34.55" transform="matrix(1.0, 0.0, 0.0, 1.0, -18.85, 13.75)" width="36.45" xlink:href="#shape0"/>
  </g>
  <defs>
    <g id="shape0" transform="matrix(1.0, 0.0, 0.0, 1.0, 18.85, -13.75)">
      <path d="M16.65 22.1 Q16.05 24.2 14.9 23.8 14.5 27.45 13.6 28.25 L12.65 28.35 Q11.95 28.45 11.55 29.35 L10.8 32.25 Q10.35 34.0 9.85 33.9 9.45 37.8 8.0 37.5 7.8 38.6 7.0 39.35 6.2 40.15 5.8 39.1 4.05 44.4 -0.9 48.1 -2.45 49.05 -1.25 45.2 -0.6 44.3 -0.15 43.0 0.2 42.05 -0.95 39.5 -2.05 36.95 -2.85 36.85 -3.45 36.8 -4.1 35.7 L-4.6 34.65 -6.0 34.45 Q-6.7 34.1 -7.3 32.6 L-7.75 31.2 Q-8.3 32.15 -9.5 31.6 L-11.45 29.75 Q-12.95 27.9 -13.5 27.4 -15.2 25.15 -16.2 24.9 -16.85 24.7 -17.85 23.3 L-18.8 21.55 -18.85 20.95 Q-18.65 18.4 -17.05 15.8 L-15.55 13.75 -14.7 15.95 Q-13.65 18.2 -12.7 18.15 L-10.0 17.45 Q-3.3 15.45 -0.25 15.5 3.4 15.6 8.75 17.4 11.75 18.2 14.85 14.1 L16.3 16.6 Q17.75 19.3 17.6 20.55 17.35 21.65 16.65 22.1 M0.15 21.1 Q1.05 21.1 2.15 22.2 L3.35 21.5 4.7 21.45 6.1 21.35 7.0 20.15 Q6.2 21.1 4.7 19.7 4.1 21.0 2.25 19.4 2.05 19.8 1.2 19.9 0.3 20.0 -0.15 19.5 -0.65 20.9 -2.3 19.7 L-4.95 19.8 Q-5.45 20.35 -6.75 20.45 -6.1 21.2 -3.6 21.35 -2.75 21.45 -1.7 22.2 -1.4 22.2 -0.9 21.65 -0.35 21.1 0.15 21.1" fill="#0d090e" fill-rule="evenodd" stroke="none"/>
      <path d="M14.15 22.8 L14.05 23.7 Q13.8 26.3 13.1 27.5 L13.0 27.5 Q11.4 27.5 10.75 29.0 L10.1 31.3 9.7 33.0 9.15 32.85 9.05 33.8 Q8.7 36.25 8.0 36.7 L7.3 36.75 7.2 37.35 Q6.95 38.2 6.5 38.65 L5.65 36.85 5.0 38.8 Q4.15 41.4 1.75 44.4 -0.4 47.2 -0.75 46.85 L-0.15 44.85 0.65 43.3 0.85 41.95 Q0.85 40.3 -0.65 37.75 -1.65 36.05 -2.75 36.0 -3.3 35.9 -3.8 34.35 L-4.35 33.5 -4.95 33.9 -5.6 33.7 Q-6.3 33.3 -6.95 31.0 L-7.4 29.25 -8.45 30.75 -9.15 30.8 -11.1 28.85 -12.95 26.75 -14.15 25.5 Q-15.15 24.3 -16.0 24.1 L-17.1 22.9 -17.95 21.4 -18.1 20.45 Q-18.15 19.45 -16.85 17.1 L-15.6 14.9 Q-14.3 19.7 -11.85 18.8 L-8.05 17.4 Q-3.6 15.95 -0.25 15.95 5.15 15.95 9.1 18.1 L10.75 18.0 Q12.3 17.75 14.9 15.25 L16.8 20.05 Q16.75 21.1 16.2 21.4 L15.9 21.55 15.85 21.9 Q15.6 22.75 15.0 22.95 L14.15 22.8 M0.15 21.95 L0.75 22.35 Q1.55 23.15 2.3 23.05 L3.45 22.5 4.1 22.1 Q4.75 22.7 5.75 22.45 L7.25 21.2 8.1 19.45 6.25 19.6 4.65 18.75 3.7 19.3 2.15 18.2 Q1.9 19.15 1.15 19.2 L-0.4 18.45 Q-0.4 19.15 -1.05 19.3 L-2.45 18.55 Q-2.7 19.3 -3.6 19.45 L-4.7 19.15 -5.15 18.7 -5.65 19.25 Q-6.1 19.9 -6.65 19.95 L-7.95 20.0 -7.15 20.85 Q-5.9 22.3 -4.2 22.2 L-3.65 22.2 -3.05 22.55 -1.7 23.05 Q-1.1 23.05 -0.35 22.3 L0.15 21.95" fill="#ffffff" fill-rule="evenodd" stroke="none"/>
      <path d="M7.8 23.35 Q8.45 22.55 9.7 23.2 10.3 23.5 10.8 23.95 L9.65 21.35 10.55 19.75 13.4 19.6 Q11.75 18.75 12.1 18.35 L14.3 18.3 14.85 16.8 Q15.45 17.0 15.9 19.6 15.85 20.4 15.3 20.7 L14.8 21.8 Q14.3 22.25 13.1 22.5 L12.5 26.3 11.0 26.4 10.25 28.4 9.5 28.15 9.35 31.95 8.75 31.4 Q8.15 35.5 7.85 35.7 7.65 35.7 6.55 33.2 6.3 36.8 6.05 37.05 L4.5 34.95 4.3 36.9 Q3.95 39.2 3.05 40.95 0.3 46.45 -0.4 46.8 L1.35 43.6 Q2.45 41.65 3.4 37.45 L3.4 30.8 5.3 33.75 Q5.6 28.15 5.8 26.95 7.1 29.05 8.2 28.65 8.6 28.5 7.8 23.35" fill="#c0bbbd" fill-rule="evenodd" stroke="none"/>
      <path d="M-1.65 32.95 L-1.55 34.8 -2.25 31.25 Q-3.4 34.35 -3.5 33.35 -3.65 32.35 -1.35 26.95 -1.9 28.55 -1.65 32.95 M2.25 17.75 Q3.15 18.6 4.9 18.0 L6.65 19.05 8.25 19.2 9.85 20.5 9.65 19.2 12.6 19.25 8.5 18.0 13.65 17.8 14.8 15.9 15.8 18.8 Q15.35 18.4 13.9 18.55 L12.6 18.75 15.2 20.3 12.45 19.95 10.6 20.2 12.85 22.05 10.3 21.75 Q10.75 22.2 11.75 25.45 L9.85 23.45 Q10.3 24.2 10.05 27.55 9.25 25.1 7.8 23.5 9.2 26.85 9.05 31.45 L8.35 28.45 7.75 35.3 Q7.35 32.15 5.75 29.7 6.4 32.3 5.6 36.45 5.3 34.95 3.75 32.75 4.3 37.5 2.55 40.8 2.55 38.85 1.75 34.9 0.95 30.9 0.55 31.1 -0.25 35.7 -1.0 36.25 L-1.4 35.45 Q-1.45 33.8 -0.4 30.4 0.65 26.9 1.05 27.95 L2.2 32.95 Q2.95 37.1 2.75 38.8 3.55 36.9 2.95 31.45 2.45 26.95 2.6 27.1 5.0 34.7 4.9 31.95 4.9 30.65 3.8 26.45 2.95 23.1 3.4 23.2 3.8 23.25 5.65 26.2 7.25 28.7 7.25 27.75 L5.75 22.45 Q6.7 21.85 7.5 20.65 L8.1 19.6 Q6.25 19.9 5.3 19.25 L4.75 18.55 Q4.55 19.1 3.85 19.3 3.15 19.5 2.4 18.45 L1.15 19.2 Q0.55 19.5 -0.25 18.25 1.15 18.8 2.25 17.75 M-1.55 34.8 L-1.4 35.45 -1.4 35.5 Q-1.25 41.15 -1.55 34.8" fill="#dedee3" fill-rule="evenodd" stroke="none"/>
      <path d="M-6.85 31.45 L-7.4 29.35 -8.65 30.95 Q-7.45 25.8 -5.35 23.85 -6.55 26.7 -6.85 31.45" fill="#dedee3" fill-rule="evenodd" stroke="none"/>
      <path d="M-10.7 22.2 L-11.6 23.0 -10.75 21.35 Q-10.3 20.55 -9.0 20.15 L-7.85 19.9 Q-7.45 21.45 -4.95 22.25 -6.45 22.5 -8.7 25.05 -6.95 22.35 -7.4 22.3 -7.85 22.25 -8.75 23.1 L-9.95 24.6 Q-9.1 22.5 -9.45 21.95 -9.75 21.5 -10.7 22.2" fill="#dedee3" fill-rule="evenodd" stroke="none"/>
      <path d="M5.75 22.45 L6.55 24.25 Q7.3 26.45 7.1 28.3 6.45 25.8 4.35 22.3 L5.75 22.45" fill="#c0bbbd" fill-rule="evenodd" stroke="none"/>
      <path d="M1.75 23.05 L2.65 22.95 3.3 24.0 Q3.9 25.25 3.95 26.45 L1.75 23.05" fill="#c0bbbd" fill-rule="evenodd" stroke="none"/>
      <path d="M0.5 22.05 L1.75 23.05 1.75 26.15 0.5 22.05" fill="#c0bbbd" fill-rule="evenodd" stroke="none"/>
      <path d="M-0.65 22.55 L-2.35 27.0 -2.85 22.7 Q-1.45 23.5 -0.65 22.55" fill="#dedee3" fill-rule="evenodd" stroke="none"/>
      <path d="M-1.0 22.8 L-2.2 25.25 -2.4 22.95 -1.0 22.8" fill="#c0bbbd" fill-rule="evenodd" stroke="none"/>
      <path d="M-8.65 20.95 L-9.95 21.1 -7.85 20.0 -6.35 21.65 -9.05 22.6 Q-8.05 21.15 -8.65 20.95" fill="#c0bbbd" fill-rule="evenodd" stroke="none"/>
      <path d="M7.85 20.5 L9.55 22.0 10.15 22.9 8.8 22.35 Q9.6 25.25 9.1 24.05 8.7 22.95 6.6 21.9 L7.85 20.5" fill="#c0bbbd" fill-rule="evenodd" stroke="none"/>
    </g>
  </defs>
</svg>
